dist/img/svg/advantages/fresh-room.svg

<svg width="28" height="28" viewBox="0 0 28 28" fill="none" xmlns="http://www.w3.org/2000/svg">
<path d="M27.6163 7.88514L14.3942 0.107269C14.1507 -0.0354309 13.8493 -0.0354309 13.6058 0.107269L0.383667 7.88514C0.145833 8.02471 0 8.27992 0 8.55563V27.2223C0 27.6518 0.348348 28.0002 0.777873 28.0002H7.82572C8.23446 27.9999 8.57312 27.6834 8.60103 27.2756C8.70357 25.5176 9.1818 23.8021 10.0033 22.2446C10.8717 22.8282 11.8777 23.1737 12.9213 23.2463C13.0991 23.26 13.2748 23.2671 13.4486 23.2671C15.0519 23.2842 16.5925 22.6451 17.7128 21.4981C18.5684 20.3539 18.962 18.9297 18.8156 17.5087C18.7943 16.1136 18.7729 14.6704 20.773 12.271C20.9561 12.0508 21.0037 11.748 20.8966 11.4823C20.7898 11.2168 20.5454 11.0314 20.2609 10.9995C15.4301 10.458 9.93404 12.817 8.25867 16.1407C7.40218 17.7571 7.63717 19.7352 8.84798 21.1064C7.9106 22.7468 7.19055 24.1204 7 26L2 26V9L14 2L26 9V26L11.6667 26C11.2371 26 10.8293 26.5 10.8293 27C10.8293 27.5 11.2371 28.0002 11.6667 28.0002H27.2221C27.6517 28.0002 28 27.6518 28 27.2223V8.55563C28 8.27992 27.8542 8.02471 27.6163 7.88514ZM9.64693 16.8408C10.7538 14.6465 14.5665 12.5168 18.6766 12.4749C17.6313 13.9449 17.1306 15.7331 17.2599 17.5321C17.3952 18.572 17.1377 19.625 16.5376 20.4852C15.6067 21.3824 14.3281 21.825 13.0415 21.6952C12.2509 21.6442 11.4875 21.385 10.8293 20.9438C11.559 19.9788 12.4981 19.1924 13.5762 18.6435C13.9604 18.4512 14.1162 17.9841 13.924 17.5999C13.732 17.2156 13.2646 17.0598 12.8803 17.2521C11.69 17.8599 10.6418 18.713 9.80473 19.7549C9.20801 18.8907 9.14705 17.7645 9.64693 16.8408Z" fill="#78C081"/>
</svg>

<svg width="28" height="28" fill="none" xmlns="http://www.w3.org/2000/svg"><path d="M27.616 7.885L14.394.107a.78.78 0 00-.788 0L.384 7.885a.777.777 0 00-.384.67v18.667c0 .43.348.778.778.778h7.048a.778.778 0 00.775-.724c.103-1.758.58-3.474 1.402-5.031a5.978 5.978 0 002.918 1.001c.178.014.354.021.528.021a5.873 5.873 0 004.264-1.769 5.688 5.688 0 001.103-3.99c-.022-1.394-.043-2.838 1.957-5.237a.778.778 0 00-.512-1.272c-4.83-.541-10.327 1.818-12.002 5.142a4.394 4.394 0 00.589 4.965C7.911 22.746 7.191 24.12 7 26H2V9l12-7 12 7v17H11.667c-.43 0-.838.5-.838 1s.408 1 .838 1h15.555c.43 0 .778-.348.778-.778V8.556a.777.777 0 00-.384-.67zm-17.97 8.956c1.108-2.195 4.92-4.324 9.03-4.366a7.766 7.766 0 00-1.416 5.057 4.212 4.212 0 01-.722 2.953 4.401 4.401 0 01-3.497 1.21 4.493 4.493 0 01-2.212-.751 7.986 7.986 0 012.747-2.3.778.778 0 10-.696-1.392 9.47 9.47 0 00-3.075 2.503 2.791 2.791 0 01-.158-2.914z" fill="#78C081"/></svg>
